Numix-Light/16/status/indicator-keyboard-Ie-3.svg

<?xml version="1.0" encoding="UTF-8" standalone="no"?>
<svg
   xmlns:dc="http://purl.org/dc/elements/1.1/"
   xmlns:cc="http://creativecommons.org/ns#"
   xmlns:rdf="http://www.w3.org/1999/02/22-rdf-syntax-ns#"
   xmlns:svg="http://www.w3.org/2000/svg"
   xmlns="http://www.w3.org/2000/svg"
   xmlns:sodipodi="http://sodipodi.sourceforge.net/DTD/sodipodi-0.dtd"
   xmlns:inkscape="http://www.inkscape.org/namespaces/inkscape"
   viewBox="0 0 16 16"
   id="svg2"
   version="1.1"
   inkscape:version="0.91 r13725"
   sodipodi:docname="indicator-keyboard-Ie-3.svg">
  <metadata
     id="metadata14">
    <rdf:RDF>
      <cc:Work
         rdf:about="">
        <dc:format>image/svg+xml</dc:format>
        <dc:type
           rdf:resource="http://purl.org/dc/dcmitype/StillImage" />
      </cc:Work>
    </rdf:RDF>
  </metadata>
  <defs
     id="defs12" />
  <sodipodi:namedview
     pagecolor="#ffffff"
     bordercolor="#666666"
     borderopacity="1"
     objecttolerance="10"
     gridtolerance="10"
     guidetolerance="10"
     inkscape:pageopacity="0"
     inkscape:pageshadow="2"
     inkscape:window-width="640"
     inkscape:window-height="480"
     id="namedview10"
     showgrid="false"
     inkscape:zoom="14.75"
     inkscape:cx="8"
     inkscape:cy="8"
     inkscape:window-x="65"
     inkscape:window-y="24"
     inkscape:window-maximized="0"
     inkscape:current-layer="svg2" />
  <path
     style="fill:#353535;fill-opacity:1"
     d="M 1.5996094 0 C 0.71320937 2.9605947e-16 0 0.71320937 0 1.5996094 L 0 14.400391 C 2.9605947e-16 15.286791 0.71320937 16 1.5996094 16 L 14.400391 16 C 15.286791 16 16 15.286791 16 14.400391 L 16 1.5996094 C 16 0.71320937 15.286791 0 14.400391 0 L 1.5996094 0 z M 3.4101562 4.859375 L 4.0214844 4.859375 L 4.0214844 11.095703 L 3.4101562 11.095703 L 3.4101562 4.859375 z M 7.3613281 6.3359375 C 7.9313281 6.3359375 8.38275 6.5205781 8.71875 6.8925781 C 9.06075 7.2645781 9.2324219 7.8373281 9.2324219 8.6113281 C 9.2324219 8.6593281 9.2306094 8.7078594 9.2246094 8.7558594 C 9.2246094 8.8038594 9.2208438 8.848625 9.2148438 8.890625 L 5.9472656 8.890625 C 5.9652656 9.460625 6.1070937 9.8990779 6.3710938 10.205078 C 6.6350937 10.511078 7.0548594 10.664062 7.6308594 10.664062 C 7.9488594 10.664062 8.2007188 10.634219 8.3867188 10.574219 C 8.5727188 10.514219 8.7070156 10.463875 8.7910156 10.421875 L 8.9003906 10.925781 C 8.8163906 10.973781 8.655875 11.029703 8.421875 11.095703 C 8.193875 11.161703 7.9252812 11.195312 7.6132812 11.195312 C 7.2052812 11.195312 6.8563594 11.135625 6.5683594 11.015625 C 6.2803594 10.895625 6.0434219 10.727719 5.8574219 10.511719 C 5.6714219 10.295719 5.537125 10.040094 5.453125 9.7460938 C 5.369125 9.4460938 5.3261719 9.119625 5.3261719 8.765625 C 5.3261719 8.357625 5.3840469 8.003125 5.4980469 7.703125 C 5.6180469 7.397125 5.7710313 7.1415 5.9570312 6.9375 C 6.1490312 6.7335 6.3654688 6.5842813 6.6054688 6.4882812 C 6.8514688 6.3862812 7.1033281 6.3359375 7.3613281 6.3359375 z M 7.3691406 6.8574219 C 7.1591406 6.8574219 6.9707344 6.8984219 6.8027344 6.9824219 C 6.6407344 7.0664219 6.4970938 7.1802188 6.3710938 7.3242188 C 6.2510937 7.4622188 6.1540313 7.6245469 6.0820312 7.8105469 C 6.0160312 7.9965469 5.9768437 8.1924844 5.9648438 8.3964844 L 8.6289062 8.3964844 C 8.6169062 7.9104844 8.5031094 7.5317188 8.2871094 7.2617188 C 8.0711094 6.9917187 7.7651406 6.8574219 7.3691406 6.8574219 z M 11.222656 8.7539062 C 11.425456 8.7539062 11.597888 8.7793781 11.742188 8.8300781 C 11.890387 8.8807781 12.013828 8.953275 12.111328 9.046875 C 12.208828 9.136575 12.281325 9.2463 12.328125 9.375 C 12.374925 9.4997999 12.398438 9.6350031 12.398438 9.7832031 C 12.398438 10.021103 12.333778 10.217041 12.205078 10.369141 C 12.080278 10.517341 11.917649 10.625106 11.71875 10.691406 C 11.82795 10.718706 11.933757 10.759859 12.035156 10.818359 C 12.140456 10.872959 12.234506 10.945456 12.316406 11.035156 C 12.398306 11.120956 12.464925 11.226762 12.515625 11.351562 C 12.566325 11.476363 12.589844 11.623316 12.589844 11.791016 C 12.589844 11.962616 12.560447 12.119372 12.498047 12.263672 C 12.439547 12.407972 12.349416 12.535331 12.228516 12.644531 C 12.111516 12.749831 11.960643 12.834084 11.777344 12.896484 C 11.594044 12.954984 11.380466 12.984375 11.134766 12.984375 C 11.006066 12.984375 10.886544 12.974578 10.777344 12.955078 C 10.672044 12.939478 10.577994 12.919884 10.496094 12.896484 C 10.414194 12.873084 10.343656 12.849572 10.285156 12.826172 C 10.230556 12.802772 10.189409 12.783178 10.162109 12.767578 L 10.261719 12.427734 C 10.285119 12.443334 10.324306 12.462928 10.378906 12.486328 C 10.433506 12.509728 10.498166 12.533241 10.572266 12.556641 C 10.650266 12.576141 10.736478 12.593775 10.830078 12.609375 C 10.927578 12.624975 11.033384 12.632813 11.146484 12.632812 C 11.516984 12.632812 11.781506 12.556397 11.941406 12.404297 C 12.101306 12.248297 12.181641 12.040597 12.181641 11.779297 C 12.181641 11.607697 12.148331 11.464663 12.082031 11.351562 C 12.019631 11.238463 11.931459 11.148331 11.818359 11.082031 C 11.709159 11.011831 11.579841 10.962847 11.431641 10.935547 C 11.287341 10.904347 11.134503 10.888672 10.970703 10.888672 L 10.912109 10.888672 L 10.912109 10.574219 L 11.046875 10.574219 C 11.152175 10.574219 11.257987 10.564422 11.367188 10.544922 C 11.480287 10.521522 11.582175 10.480375 11.671875 10.421875 C 11.765475 10.363375 11.841891 10.285 11.900391 10.1875 C 11.962791 10.09 11.994141 9.9646001 11.994141 9.8125 C 11.994141 9.6838 11.972588 9.5760281 11.929688 9.4863281 C 11.886787 9.3927281 11.828006 9.3182719 11.753906 9.2636719 C 11.683706 9.2090719 11.599453 9.1698844 11.501953 9.1464844 C 11.408353 9.1191844 11.310378 9.1054687 11.205078 9.1054688 C 10.994478 9.1054688 10.829891 9.1348594 10.712891 9.1933594 C 10.595891 9.2518594 10.499881 9.3067219 10.425781 9.3574219 L 10.261719 9.0585938 C 10.300719 9.0312937 10.349703 8.9999437 10.408203 8.9648438 C 10.470603 8.9297437 10.5431 8.8964344 10.625 8.8652344 C 10.7069 8.8340344 10.797031 8.8085625 10.894531 8.7890625 C 10.995931 8.7656625 11.105656 8.7539062 11.222656 8.7539062 z "
     id="path4" />
</svg>

<svg xmlns="http://www.w3.org/2000/svg" viewBox="0 0 16 16">
 <path d="m 1.6 0 c -0.886 0 -1.6 0.713 -1.6 1.6 l 0 12.801 c 0 0.886 0.713 1.6 1.6 1.6 l 12.801 0 c 0.886 0 1.6 -0.713 1.6 -1.6 l 0 -12.801 c 0 -0.886 -0.713 -1.6 -1.6 -1.6 l -12.801 0 z m 1.811 4.859 l 0.611 0 l 0 6.236 l -0.611 0 l 0 -6.236 z m 3.951 1.477 c 0.57 0 1.021 0.185 1.357 0.557 c 0.342 0.372 0.514 0.945 0.514 1.719 c 0 0.048 -0.002 0.097 -0.008 0.145 c 0 0.048 -0.004 0.093 -0.01 0.135 l -3.268 0 c 0.018 0.57 0.16 1.01 0.424 1.314 c 0.264 0.306 0.684 0.459 1.26 0.459 c 0.318 0 0.57 -0.03 0.756 -0.09 c 0.186 -0.06 0.32 -0.11 0.404 -0.152 l 0.109 0.504 c -0.084 0.048 -0.245 0.104 -0.479 0.17 c -0.228 0.066 -0.497 0.1 -0.809 0.1 c -0.408 0 -0.757 -0.06 -1.045 -0.18 c -0.288 -0.12 -0.525 -0.288 -0.711 -0.504 c -0.186 -0.216 -0.32 -0.472 -0.404 -0.766 c -0.084 -0.3 -0.127 -0.626 -0.127 -0.98 c 0 -0.408 0.058 -0.762 0.172 -1.063 c 0.12 -0.306 0.273 -0.562 0.459 -0.766 c 0.192 -0.204 0.408 -0.353 0.648 -0.449 c 0.246 -0.102 0.498 -0.152 0.756 -0.152 z m 0.008 0.521 c -0.21 0 -0.398 0.041 -0.566 0.125 c -0.162 0.084 -0.306 0.198 -0.432 0.342 c -0.12 0.138 -0.217 0.3 -0.289 0.486 c -0.066 0.186 -0.105 0.382 -0.117 0.586 l 2.664 0 c -0.012 -0.486 -0.126 -0.865 -0.342 -1.135 c -0.216 -0.27 -0.522 -0.404 -0.918 -0.404 z m 3.854 1.896 c 0.203 0 0.375 0.025 0.52 0.076 c 0.148 0.051 0.272 0.123 0.369 0.217 c 0.098 0.09 0.17 0.199 0.217 0.328 c 0.047 0.125 0.07 0.26 0.07 0.408 c 0 0.238 -0.065 0.434 -0.193 0.586 c -0.125 0.148 -0.287 0.256 -0.486 0.322 c 0.109 0.027 0.215 0.068 0.316 0.127 c 0.105 0.055 0.199 0.127 0.281 0.217 c 0.082 0.086 0.149 0.192 0.199 0.316 c 0.051 0.125 0.074 0.272 0.074 0.439 c 0 0.172 -0.029 0.328 -0.092 0.473 c -0.059 0.144 -0.149 0.272 -0.27 0.381 c -0.117 0.105 -0.268 0.19 -0.451 0.252 c -0.183 0.059 -0.397 0.088 -0.643 0.088 c -0.129 0 -0.248 -0.01 -0.357 -0.029 c -0.105 -0.016 -0.199 -0.035 -0.281 -0.059 c -0.082 -0.023 -0.152 -0.047 -0.211 -0.07 c -0.055 -0.023 -0.096 -0.043 -0.123 -0.059 l 0.1 -0.34 c 0.023 0.016 0.063 0.035 0.117 0.059 c 0.055 0.023 0.119 0.047 0.193 0.07 c 0.078 0.019 0.164 0.037 0.258 0.053 c 0.098 0.016 0.203 0.023 0.316 0.023 c 0.371 0 0.635 -0.076 0.795 -0.229 c 0.16 -0.156 0.24 -0.364 0.24 -0.625 c 0 -0.172 -0.033 -0.315 -0.1 -0.428 c -0.062 -0.113 -0.151 -0.203 -0.264 -0.27 c -0.109 -0.07 -0.239 -0.119 -0.387 -0.146 c -0.144 -0.031 -0.297 -0.047 -0.461 -0.047 l -0.059 0 l 0 -0.314 l 0.135 0 c 0.105 0 0.211 -0.01 0.32 -0.029 c 0.113 -0.023 0.215 -0.065 0.305 -0.123 c 0.094 -0.059 0.17 -0.137 0.229 -0.234 c 0.062 -0.098 0.094 -0.223 0.094 -0.375 c 0 -0.129 -0.022 -0.236 -0.064 -0.326 c -0.043 -0.094 -0.102 -0.168 -0.176 -0.223 c -0.07 -0.055 -0.154 -0.094 -0.252 -0.117 c -0.094 -0.027 -0.192 -0.041 -0.297 -0.041 c -0.211 0 -0.375 0.029 -0.492 0.088 c -0.117 0.059 -0.213 0.113 -0.287 0.164 l -0.164 -0.299 c 0.039 -0.027 0.088 -0.059 0.146 -0.094 c 0.062 -0.035 0.135 -0.068 0.217 -0.1 c 0.082 -0.031 0.172 -0.057 0.27 -0.076 c 0.101 -0.023 0.211 -0.035 0.328 -0.035 z" style="fill:#353535;fill-opacity:1"/>
</svg>
